assets/megaphone-fill.svg

<svg xmlns="http://www.w3.org/2000/svg" fill="none" viewBox="0 0 28 25">
  <path fill="#2A2238" d="M22.75 2.62502c0-.69619.2766-1.36387.7688-1.856152.4923-.492283 1.16-.76884463 1.8562-.76884463.6962 0 1.3639.27656163 1.8562.76884463C27.7234 1.26115 28 1.92883 28 2.62502V21.875c0 .6962-.2766 1.3639-.7688 1.8562-.4923.4923-1.16.7688-1.8562.7688-.6962 0-1.3639-.2765-1.8562-.7688-.4922-.4923-.7688-1.16-.7688-1.8562V2.62502ZM21 3.89202c-3.6172 1.6625-7.9433 2.59175-12.25 2.898V17.7048c.63567.0358 1.2705.0854 1.904.1487 3.5927.357 7.0665 1.169 10.346 2.73V3.89202ZM7 17.6138V6.88452c-1.19.04725-2.44825.07525-3.514.09275-.92691.01285-1.81168.38927-2.46371 1.04818C.370247 8.68436.00312337 9.57303 0 10.5V14c0 1.9355 1.568 3.493 3.4895 3.5158.28935.0036.57868.0083.868.014.88113.0176 1.76203.0456 2.6425.084Zm2.4325 1.8917c.49875.0368.9957.0823 1.4875.1365l.4428 2.9575c.0481.2531.0398.5137-.0244.7632-.0641.2496-.1826.4818-.347.6803-.1643.1984-.3704.3581-.6036.4677-.2332.1095-.48766.1662-.7453.1661h-.959c-.34016-.0001-.67294-.0992-.95764-.2854-.28469-.1862-.50896-.4513-.64536-.7629l-2.2995-4.34c.98744.0247 1.97452.062 2.961.112.57225.0298 1.1375.0648 1.6905.105Z"/>
</svg>

<svg width="28" height="25" viewBox="0 0 28 25" fill="none" xmlns="http://www.w3.org/2000/svg">
<path d="M22.75 2.62502C22.75 1.92883 23.0266 1.26115 23.5188 0.768868C24.0111 0.276585 24.6788 2.3365e-05 25.375 2.3365e-05C26.0712 2.3365e-05 26.7389 0.276585 27.2312 0.768868C27.7234 1.26115 28 1.92883 28 2.62502V21.875C28 22.5712 27.7234 23.2389 27.2312 23.7312C26.7389 24.2235 26.0712 24.5 25.375 24.5C24.6788 24.5 24.0111 24.2235 23.5188 23.7312C23.0266 23.2389 22.75 22.5712 22.75 21.875V2.62502ZM21 3.89202C17.3828 5.55452 13.0567 6.48377 8.75 6.79002V17.7048C9.38567 17.7406 10.0205 17.7902 10.654 17.8535C14.2467 18.2105 17.7205 19.0225 21 20.5835V3.89202ZM7 17.6138V6.88452C5.81 6.93177 4.55175 6.95977 3.486 6.97727C2.55909 6.99012 1.67432 7.36654 1.02229 8.02545C0.370247 8.68436 0.00312337 9.57303 0 10.5V14C0 15.9355 1.568 17.493 3.4895 17.5158C3.77885 17.5194 4.06818 17.5241 4.3575 17.5298C5.23863 17.5474 6.11953 17.5754 7 17.6138ZM9.4325 19.5055C9.93125 19.5423 10.4282 19.5878 10.92 19.642L11.3628 22.5995C11.4109 22.8526 11.4026 23.1132 11.3384 23.3627C11.2743 23.6123 11.1558 23.8445 10.9914 24.043C10.8271 24.2414 10.621 24.4011 10.3878 24.5107C10.1546 24.6202 9.90014 24.6769 9.6425 24.6768H8.6835C8.34334 24.6767 8.01056 24.5776 7.72586 24.3914C7.44117 24.2052 7.2169 23.9401 7.0805 23.6285L4.781 19.2885C5.76844 19.3132 6.75552 19.3505 7.742 19.4005C8.31425 19.4303 8.8795 19.4653 9.4325 19.5055Z" fill="#2A2238"/>
</svg>
